X: 9677
T: Dear Green Place
R: reel
M: 4/4
K: Gmajor
GFGA|:B2 d2 G4-|Gggd eddA|B2 d2 G4|
[1 GABd dedB|c2 g4 cA|B3d eddB|c4 B4|AGDE GFGA:|
[2 g3f/d/ e3d|e2 g2 c2 B2-|B2 F2 G4-|G7G||
FGAB c2 g2-|g2 cB c3e|eddA B2 g2-|g2 BA B2 d2|
g4 f3 e/d/|e3c d2 B2|A8-|A4 DEGA||
B2 d2 G4-|Gggd eddA|B2 d2 G4|
g3 f/d/ e3B|c2 e4 g2-|g2 F2 G4-|G4||

